articles/network-watcher/media/index/network-watcher.svg

<?xml version="1.0" encoding="utf-8"?>
<!-- Generator: Adobe Illustrator 20.0.0, SVG Export Plug-In . SVG Version: 6.00 Build 0)  -->
<svg version="1.1" id="Layer_1" xmlns="http://www.w3.org/2000/svg" xmlns:xlink="http://www.w3.org/1999/xlink" x="0px" y="0px"
	 width="50px" height="50px" viewBox="0 0 50 50" enable-background="new 0 0 50 50" xml:space="preserve">
<g>
	<path fill="#FFFFFF" d="M31.9,1.1c-9.174,0-16.65,7.354-16.878,16.475C16.81,16.637,18.841,16.1,21,16.1
		c7.124,0,12.9,5.776,12.9,12.9c0,2.117-0.52,4.108-1.423,5.871C41.527,34.563,48.8,27.125,48.8,18C48.8,8.682,41.218,1.1,31.9,1.1z
		"/>
	<g>
		<path fill="#3898C5" d="M32.867,35.601c3.674-3.221,7.594-8.33,7.594-17.589S36.604,3.441,32.832,0.399l-1.529,1.502
			c3.531,2.846,6.796,6.768,6.796,16.111c0,9.375-3.375,13.113-6.829,16.139L32.867,35.601z"/>
		<rect x="16.112" y="16.941" fill="#3898C5" width="31.775" height="2.118"/>
		<path fill="#3898C5" d="M32,10.084c-5.212,0-9.918-1.453-12.729-3.618l-1.27,1.27C21.134,10.254,26.23,11.9,32,11.9
			s10.866-1.646,13.999-4.165l-1.27-1.27C41.919,8.631,37.212,10.084,32,10.084z"/>
	</g>
	<path fill="#7A7B7B" d="M10.925,35.075l-10,10l0.002,0.002C0.416,45.589,0.1,46.295,0.1,47.075c0,1.56,1.265,2.825,2.825,2.825
		c0.78,0,1.486-0.316,1.998-0.827l0.002,0.002l10-10L10.925,35.075z"/>
	<path opacity="0.4" fill="#1D1D1D" d="M7,39c1.047,1.591,2.409,2.953,4,4l2.615-2.615l-4-4L7,39z"/>
	<circle fill="#FFFFFF" cx="20.725" cy="28.9" r="9"/>
	<circle fill="#FFFFFF" cx="21" cy="29" r="11"/>
	<path fill="#3898C5" d="M25.921,17.077c0.215-8.663,3.367-12.428,6.775-15.176l-1.529-1.502c-3.541,2.856-7.156,7.715-7.585,15.96
		C24.393,16.524,25.174,16.768,25.921,17.077z"/>
	<path fill="#3898C5" d="M32.943,24.133c0.241,0.591,0.432,1.205,0.584,1.836c4.594,0.253,8.67,1.614,11.202,3.565l1.27-1.27
		C43.039,25.885,38.32,24.303,32.943,24.133z"/>
	<path fill="#3898C5" d="M32,0.1c-9.869,0-17.9,8.031-17.9,17.9c0,0.037,0.005,0.073,0.006,0.11
		c0.721-0.457,1.489-0.842,2.297-1.151C16.943,8.815,23.722,2.35,32,2.35c8.629,0,15.65,7.021,15.65,15.65
		c0,8.278-6.465,15.057-14.609,15.597c-0.309,0.808-0.694,1.576-1.151,2.297c0.037,0,0.073,0.006,0.11,0.006
		c9.869,0,17.9-8.029,17.9-17.9C49.9,8.131,41.869,0.1,32,0.1z"/>
	<path fill="#7FBA00" d="M19.581,35l-2.068-6.107l-1.588,3.131H13v-1.569h1.941l2.865-5.646l1.766,5.215l2.525-7.539l2.07,6.097
		l1.932-3.687l2.9,0v1.588l-1.988-0.002l-3.136,6.181l-1.768-5.208L19.581,35z"/>
	<path opacity="0.2" fill="#3898C5" d="M13.49,32.49c0-6.501,4.53-11,11-11c2.01,0,3.889,0.548,5.51,1.49
		c-1.904-3.279-5.445-5.49-9.51-5.49c-6.075,0-11,4.925-11,11c0,4.065,2.211,7.606,5.49,9.51C14.038,36.378,13.49,34.5,13.49,32.49z
		"/>
	<path fill="#7A7B7B" d="M21,15.1c-7.677,0-13.9,6.223-13.9,13.9c0,7.677,6.223,13.9,13.9,13.9S34.9,36.677,34.9,29
		C34.9,21.323,28.677,15.1,21,15.1z M21,39.3c-5.689,0-10.3-4.611-10.3-10.3S15.311,18.7,21,18.7S31.3,23.312,31.3,29
		S26.689,39.3,21,39.3z"/>
</g>
</svg>

<svg id="Layer_1" data-name="Layer 1" xmlns="http://www.w3.org/2000/svg" viewBox="0 0 50 50"><defs><style>.cls-1{fill:#fff;}.cls-2,.cls-6{fill:#3898c5;}.cls-3{fill:#7a7b7b;}.cls-4{fill:#1d1d1d;opacity:0.4;}.cls-4,.cls-6{isolation:isolate;}.cls-5{fill:#7fba00;}.cls-6{opacity:0.2;}</style></defs><title>network_watcher</title><path class="cls-1" d="M31.9,1.1A16.91,16.91,0,0,0,15,17.58a12.89,12.89,0,0,1,17.46,17.3A16.89,16.89,0,0,0,31.9,1.1Z"/><path class="cls-2" d="M32.87,35.6c3.67-3.22,7.59-8.33,7.59-17.59S36.6,3.44,32.83.4L31.3,1.9C34.83,4.75,38.1,8.67,38.1,18s-3.37,13.11-6.83,16.14Z"/><rect class="cls-2" x="16.11" y="16.94" width="31.78" height="2.12"/><path class="cls-2" d="M32,10.08c-5.21,0-9.92-1.45-12.73-3.62L18,7.74c3.13,2.52,8.23,4.16,14,4.16s10.87-1.65,14-4.16L44.73,6.46C41.92,8.63,37.21,10.08,32,10.08Z"/><path class="cls-3" d="M10.93,35.08l-10,10h0a2.83,2.83,0,0,0,4,4h0l10-10Z"/><path class="cls-4" d="M7,39a14,14,0,0,0,4,4l2.61-2.62-4-4Z"/><circle class="cls-1" cx="20.73" cy="28.9" r="9"/><circle class="cls-1" cx="21" cy="29" r="11"/><path class="cls-2" d="M25.92,17.08C26.14,8.41,29.29,4.65,32.7,1.9L31.17.4c-3.54,2.86-7.16,7.72-7.58,16A12.78,12.78,0,0,1,25.92,17.08Z"/><path class="cls-2" d="M32.94,24.13A12.78,12.78,0,0,1,33.53,26c4.59.25,8.67,1.61,11.2,3.57L46,28.26C43,25.89,38.32,24.3,32.94,24.13Z"/><path class="cls-2" d="M32,.1A17.92,17.92,0,0,0,14.1,18s0,.07,0,.11A12.88,12.88,0,0,1,16.4,17,15.64,15.64,0,1,1,33,33.6a12.88,12.88,0,0,1-1.15,2.3H32A17.9,17.9,0,1,0,32,.1Z"/><path class="cls-5" d="M19.58,35l-2.07-6.11L15.92,32H13V30.45h1.94l2.86-5.65L19.57,30l2.52-7.54,2.07,6.1,1.93-3.69H29v1.59H27l-3.14,6.18-1.77-5.21Z"/><path class="cls-6" d="M13.49,32.49c0-6.5,4.53-11,11-11A10.93,10.93,0,0,1,30,23,11,11,0,1,0,15,38,10.93,10.93,0,0,1,13.49,32.49Z"/><path class="cls-3" d="M21,15.1A13.9,13.9,0,1,0,34.9,29,13.9,13.9,0,0,0,21,15.1Zm0,24.2A10.3,10.3,0,1,1,31.3,29,10.3,10.3,0,0,1,21,39.3Z"/></svg>
